; generated by Slic3r 1.3.0 on 2019-04-01 at 13:26:07

; external perimeters extrusion width = 0.44mm (3.38mm^3/s)
; perimeters extrusion width = 0.48mm (7.54mm^3/s)
; infill extrusion width = 0.48mm (10.05mm^3/s)
; solid infill extrusion width = 0.48mm (2.51mm^3/s)
; top infill extrusion width = 0.48mm (1.88mm^3/s)
; support material extrusion width = 0.44mm (6.76mm^3/s)

M107
M190 S65 ; set bed temperature and wait for it to be reached
M104 S205 ; set temperature
G28 ; home all axes
G1 Z5 F5000 ; lift nozzle

; Filament gcode

M109 S205 ; set temperature and wait for it to be reached
G21 ; set units to millimeters
G90 ; use absolute coordinates
M82 ; use absolute distances for extrusion
G92 E0
G1 Z0.350 F7800.000
G1 E-2.00000 F2400.00000
G92 E0
G1 X119.996 Y123.831 F7800.000
G1 E2.00000 F2400.00000
G1 F1800
G1 X121.156 Y122.775 E2.14271
G1 X133.654 Y113.857 E3.53877
G1 X135.137 Y113.062 E3.69174
G1 X137.136 Y112.301 E3.88625
G1 X137.577 Y112.151 E3.92857
G1 X139.349 Y111.620 E4.09682
G1 X140.998 Y111.219 E4.25118
G1 X142.397 Y111.047 E4.37931
G1 X156.417 Y110.826 E5.65429
G1 X157.826 Y110.955 E5.78291
G1 X158.697 Y111.130 E5.86376
G1 X160.498 Y111.596 E6.03292
G1 X161.755 Y111.940 E6.15143
G1 X162.251 Y112.097 E6.19866
G1 X163.613 Y112.589 E6.33038
G1 X164.863 Y113.067 E6.45204
G1 X166.001 Y113.535 E6.56394
G1 X166.397 Y113.708 E6.60325
G1 X167.700 Y114.463 E6.74022
G1 X178.963 Y122.837 E8.01639
G1 X180.152 Y123.975 E8.16601
G1 X181.414 Y125.536 E8.34857
G1 X182.994 Y127.679 E8.59067
G1 X183.299 Y128.134 E8.64048
G1 X184.521 Y130.156 E8.85525
G1 X185.239 Y132.089 E9.04275
G1 X187.832 Y144.928 E10.23379
G1 X187.918 Y145.471 E10.28382
G1 X187.979 Y146.046 E10.33634
G1 X188.071 Y147.054 E10.42839
G1 X188.135 Y148.064 E10.52043
G1 X188.184 Y149.912 E10.68855
G1 X188.173 Y150.924 E10.78060
G1 X188.135 Y151.936 E10.87264
G1 X188.071 Y152.946 E10.96469
G1 X187.973 Y154.014 E11.06217
G1 X187.918 Y154.529 E11.10927
G1 X187.821 Y155.125 E11.16423
G1 X187.706 Y155.633 E11.21158
G1 X183.907 Y170.257 E12.58542
G1 X182.879 Y172.451 E12.80578
G1 X181.431 Y174.471 E13.03178
G1 X181.085 Y174.913 E13.08274
G1 X180.004 Y176.169 E13.23344
G1 X178.844 Y177.225 E13.37616
G1 X166.346 Y186.143 E14.77222
G1 X164.863 Y186.938 E14.92519
G1 X162.864 Y187.699 E15.11970
G1 X162.423 Y187.849 E15.16202
G1 X160.651 Y188.380 E15.33026
G1 X159.002 Y188.781 E15.48456
G1 X157.506 Y188.954 E15.62148
G1 X142.509 Y188.972 E16.98518
G1 X140.861 Y188.765 E17.13626
G1 X138.949 Y188.277 E17.31565
G1 X138.003 Y187.988 E17.40558
G1 X135.913 Y187.263 E17.60673
G1 X133.475 Y186.239 E17.84717
G1 X132.074 Y185.433 E17.99421
G1 X121.026 Y177.135 E19.25054
G1 X119.890 Y176.049 E19.39344
G1 X118.121 Y173.885 E19.64761
G1 X117.218 Y172.667 E19.78549
G1 X116.893 Y172.182 E19.83861
G1 X115.331 Y169.605 E20.11258
G1 X114.493 Y167.409 E20.32634
G1 X112.109 Y154.729 E21.49947
G1 X111.984 Y153.589 E21.60373
G1 X111.905 Y152.608 E21.69328
G1 X111.849 Y151.600 E21.78508
G1 X111.820 Y150.592 E21.87679
G1 X111.820 Y149.408 E21.98439
G1 X111.893 Y147.568 E22.15188
G1 X111.984 Y146.411 E22.25744
G1 X112.109 Y145.271 E22.36170
G1 X114.552 Y132.492 E23.54469
G1 X115.284 Y130.491 E23.73844
G1 X115.720 Y129.716 E23.81929
G1 X116.225 Y128.875 E23.90852
G1 X116.955 Y127.771 E24.02881
G1 X118.336 Y125.808 E24.24708
G1 X118.721 Y125.312 E24.30418
G1 X119.957 Y123.877 E24.47639
G1 E22.47639 F2400.00000
G92 E0
G1 X147.802 Y176.169 F7800.000
G1 E2.00000 F2400.00000
G1 F1800
G1 X147.546 Y176.490 E2.03733
G1 X147.240 Y176.774 E2.07526
G1 X146.895 Y177.009 E2.11319
G1 X146.520 Y177.190 E2.15111
G1 X146.127 Y177.311 E2.18845
G1 X145.909 Y177.352 E2.20861
G1 X145.500 Y177.382 E2.24594
G1 X145.088 Y177.352 E2.28353
G1 X143.656 Y177.056 E2.41643
G1 X142.899 Y176.867 E2.48742
G1 X141.412 Y176.430 E2.62831
G1 X139.953 Y175.910 E2.76920
G1 X139.230 Y175.618 E2.84013
G1 X138.178 Y175.147 E2.94485
G1 X137.127 Y174.628 E3.05150
G1 X136.440 Y174.257 E3.12244
G1 X135.109 Y173.464 E3.26333
G1 X133.825 Y172.597 E3.40422
G1 X133.197 Y172.135 E3.47515
G1 X132.296 Y171.417 E3.57987
G1 X131.406 Y170.653 E3.68652
G1 X130.834 Y170.123 E3.75746
G1 X129.742 Y169.024 E3.89835
G1 X128.713 Y167.865 E4.03924
G1 X128.220 Y167.260 E4.11017
G1 X127.513 Y166.324 E4.21683
G1 X126.854 Y165.380 E4.32155
G1 X126.432 Y164.724 E4.39248
G1 X125.648 Y163.389 E4.53330
G1 X125.106 Y162.346 E4.64017
G1 X124.612 Y161.302 E4.74512
G1 X124.022 Y159.871 E4.88593
G1 X123.755 Y159.138 E4.95686
G1 X123.396 Y158.021 E5.06352
G1 X123.084 Y156.913 E5.16824
G1 X122.900 Y156.154 E5.23917
G1 X122.599 Y154.635 E5.38006
G1 X122.384 Y153.102 E5.52080
G1 X122.307 Y152.323 E5.59195
G1 X122.221 Y150.776 E5.73284
G1 X122.221 Y149.227 E5.87373
G1 X122.254 Y148.446 E5.94474
G1 X122.383 Y146.906 E6.08533
G1 X122.481 Y146.130 E6.15642
G1 X122.739 Y144.605 E6.29708
G1 X122.901 Y143.841 E6.36809
G1 X123.286 Y142.342 E6.50876
G1 X123.511 Y141.596 E6.57964
G1 X123.857 Y140.577 E6.67749
G1 X124.036 Y140.206 E6.71496
G1 X124.271 Y139.861 E6.75289
G1 X124.555 Y139.555 E6.79082
G1 X124.881 Y139.295 E6.82875
G1 X125.242 Y139.087 E6.86668
G1 X125.630 Y138.934 E6.90460
G1 X126.035 Y138.842 E6.94232
G1 X126.344 Y138.815 E6.97053
G1 X126.664 Y138.819 E6.99961
G1 X127.074 Y138.880 E7.03735
G1 X127.474 Y139.004 E7.07537
G1 X127.836 Y139.181 E7.11210
G1 X137.371 Y144.688 E8.11326
G1 X138.052 Y145.157 E8.18850
G1 X138.686 Y145.687 E8.26361
G1 X138.988 Y145.978 E8.30174
G1 X139.275 Y146.283 E8.33987
G1 X139.795 Y146.920 E8.41461
G1 X140.039 Y147.266 E8.45312
G1 X140.485 Y148.004 E8.53153
G1 X140.332 Y149.104 E8.63253
G1 X140.290 Y150.000 E8.71408
G1 X140.332 Y150.896 E8.79563
G1 X140.456 Y151.784 E8.87719
G1 X140.661 Y152.657 E8.95874
G1 X140.946 Y153.508 E9.04029
G1 X141.308 Y154.328 E9.12184
G1 X141.747 Y155.115 E9.20376
G1 X141.987 Y155.484 E9.24381
G1 X142.530 Y156.203 E9.32573
G1 X143.134 Y156.866 E9.40728
G1 X143.800 Y157.473 E9.48920
G1 X144.145 Y157.746 E9.52925
G1 X144.888 Y158.255 E9.61117
G1 X145.676 Y158.694 E9.69309
G1 X146.075 Y158.882 E9.73327
G1 X146.962 Y159.233 E9.82001
G1 X147.132 Y159.513 E9.84977
G1 X147.508 Y160.247 E9.92478
G1 X147.814 Y161.020 E10.00034
G1 X147.991 Y161.611 E10.05645
G1 X148.134 Y162.224 E10.11375
G1 X148.251 Y163.045 E10.18911
G1 X148.288 Y163.865 E10.26378
G1 X148.288 Y174.596 E11.23954
G1 X148.282 Y174.805 E11.25850
G1 X148.221 Y175.213 E11.29603
G1 X148.098 Y175.611 E11.33395
G1 X147.920 Y175.981 E11.37128
G1 X147.834 Y176.118 E11.38599
G1 X147.802 Y176.169 F7800.000
G1 E9.38599 F2400.00000
G92 E0
G1 X121.259 Y154.079 F7800.000
G1 E2.00000 F2400.00000
G1 F1800
G1 X120.829 Y153.775 E2.04789
G1 X120.255 Y153.525 E2.10480
G1 X120.168 Y152.769 E2.17401
G1 X120.106 Y151.987 E2.24532
G1 X120.043 Y150.396 E2.39016
G1 X120.064 Y148.803 E2.53501
G1 X120.104 Y148.034 E2.60504
G1 X120.249 Y146.478 E2.74714
G1 X120.800 Y146.238 E2.80178
G1 X121.244 Y145.949 E2.84996
G1 X121.140 Y146.775 E2.92562
G1 X121.006 Y148.368 E3.07098
G1 X120.971 Y149.200 E3.14674
G1 X120.971 Y150.811 E3.29319
G1 X121.061 Y152.419 E3.43963
G1 X121.142 Y153.250 E3.51555
G1 X121.251 Y154.020 E3.58625
G1 E1.58625 F2400.00000
G92 E0
G1 X121.891 Y155.934 F7800.000
G1 E2.00000 F2400.00000
G1 F1800
G1 X121.532 Y155.240 E2.07111
G1 X121.075 Y154.715 E2.13435
G1 X120.521 Y154.322 E2.19615
G1 X119.904 Y154.054 E2.25734
G1 X119.786 Y153.950 E2.27160
G1 X119.694 Y153.826 E2.28565
G1 X119.644 Y153.676 E2.30007
G1 X119.546 Y152.830 E2.37753
G1 X119.482 Y152.024 E2.45098
G1 X119.418 Y150.404 E2.59845
G1 X119.439 Y148.782 E2.74592
G1 X119.481 Y147.988 E2.81820
G1 X119.630 Y146.377 E2.96532
G1 X119.662 Y146.247 E2.97753
G1 X119.779 Y146.055 E2.99795
G1 X119.904 Y145.946 E3.01300
G1 X120.503 Y145.686 E3.07241
G1 X120.895 Y145.431 E3.11490
G1 X121.253 Y145.107 E3.15884
G1 X121.643 Y144.579 E3.21851
G1 X121.868 Y144.097 E3.26687
G1 X122.185 Y144.204 E3.29728
G1 X121.863 Y146.039 E3.46671
G1 X121.761 Y146.840 E3.54018
G1 X121.630 Y148.407 E3.68315
G1 X121.596 Y149.213 E3.75654
G1 X121.596 Y150.793 E3.90020
G1 X121.684 Y152.371 E4.04387
G1 X121.763 Y153.176 E4.11740
G1 X121.983 Y154.739 E4.26093
G1 X122.198 Y155.827 E4.36179
G1 X121.948 Y155.914 E4.38593
G1 E2.38593 F2400.00000
G92 E0
G1 X124.357 Y163.615 F7800.000
G1 E2.00000 F2400.00000
G1 F1800
G1 X124.554 Y163.993 E2.03879
G1 X125.367 Y165.379 E2.18491
G1 X125.816 Y166.077 E2.26033
G1 X126.502 Y167.059 E2.36927
G1 X127.237 Y168.032 E2.48016
G1 X127.761 Y168.675 E2.55560
G1 X128.831 Y169.879 E2.70205
G1 X129.126 Y170.177 E2.74017
G1 X128.563 Y170.210 E2.79149
G1 X127.999 Y170.338 E2.84403
G1 X127.138 Y169.363 E2.96237
G1 X126.134 Y168.112 E3.10818
G1 X125.673 Y167.487 E3.17879
G1 X124.990 Y166.491 E3.28864
G1 X124.353 Y165.487 E3.39674
G1 X123.858 Y164.643 E3.48568
G1 X124.177 Y164.097 E3.54316
G1 X124.336 Y163.671 E3.58452
G1 E1.58452 F2400.00000
G92 E0
G1 X123.766 Y161.746 F7800.000
G1 E2.00000 F2400.00000
G1 F1800
G1 X124.081 Y161.641 E2.03018
G1 X124.546 Y162.623 E2.12899
G1 X125.101 Y163.691 E2.23838
G1 X125.899 Y165.052 E2.38185
G1 X126.335 Y165.728 E2.45502
G1 X127.008 Y166.692 E2.56185
G1 X127.729 Y167.646 E2.67063
G1 X128.237 Y168.270 E2.74382
G1 X129.286 Y169.451 E2.88748
G1 X130.400 Y170.573 E3.03115
G1 X130.913 Y171.048 E3.09480
G1 X130.703 Y171.320 E3.12602
G1 X130.430 Y171.144 E3.15549
G1 X129.805 Y170.896 E3.21670
G1 X129.135 Y170.802 E3.27816
G1 X128.651 Y170.831 E3.32228
G1 X128.077 Y170.961 E3.37581
G1 X127.914 Y170.966 E3.39061
G1 X127.767 Y170.921 E3.40461
G1 X127.655 Y170.860 E3.41620
G1 X127.532 Y170.754 E3.43095
G1 X126.659 Y169.765 E3.55086
G1 X125.639 Y168.493 E3.69914
G1 X125.164 Y167.850 E3.77189
G1 X124.468 Y166.835 E3.88375
G1 X123.820 Y165.812 E3.99385
G1 X123.344 Y165.002 E4.07927
G1 X123.245 Y164.782 E4.10122
G1 X123.232 Y164.542 E4.12307
G1 X123.283 Y164.390 E4.13767
G1 X123.610 Y163.828 E4.19676
G1 X123.779 Y163.378 E4.24052
G1 X123.878 Y162.814 E4.29259
G1 X123.868 Y162.251 E4.34376
G1 X123.778 Y161.805 E4.38516
G1 E2.38516 F2400.00000
G92 E0
G1 X137.261 Y123.903 F7800.000
G1 E2.00000 F2400.00000
G1 F1800
G1 X137.420 Y123.246 E2.06150
G1 X137.461 Y122.799 E2.10231
G1 X138.583 Y122.300 E2.21399
G1 X139.309 Y122.012 E2.28498
G1 X140.821 Y121.481 E2.43069
G1 X141.968 Y121.139 E2.53957
G1 X143.117 Y120.841 E2.64748
G1 X144.155 Y120.613 E2.74415
G1 X144.518 Y121.031 E2.79444
G1 X144.972 Y121.410 E2.84821
G1 X144.161 Y121.553 E2.92311
G1 X142.593 Y121.921 E3.06955
G1 X141.790 Y122.145 E3.14532
G1 X140.258 Y122.642 E3.29177
G1 X138.746 Y123.229 E3.43923
G1 X137.315 Y123.878 E3.58213
G1 E1.58213 F2400.00000
G92 E0
G1 X135.667 Y125.087 F7800.000
G1 E2.00000 F2400.00000
G1 F1800
G1 X136.051 Y124.740 E2.04709
G1 X136.440 Y124.212 E2.10668
G1 X136.653 Y123.757 E2.15238
G1 X136.802 Y123.143 E2.20982
G1 X136.848 Y122.638 E2.25591
G1 X136.895 Y122.496 E2.26955
G1 X137.047 Y122.313 E2.29119
G1 X137.305 Y122.172 E2.31794
G1 X138.344 Y121.723 E2.42087
G1 X139.090 Y121.427 E2.49385
G1 X140.628 Y120.886 E2.64207
G1 X141.801 Y120.537 E2.75334
G1 X142.971 Y120.233 E2.86332
G1 X144.020 Y120.003 E2.96093
G1 X144.227 Y119.988 E2.97982
G1 X144.458 Y120.057 E3.00173
G1 X144.591 Y120.162 E3.01715
G1 X144.957 Y120.583 E3.06790
G1 X145.328 Y120.893 E3.11187
G1 X145.922 Y121.216 E3.17333
G1 X146.575 Y121.388 E3.23470
G1 X146.970 Y121.413 E3.27066
G1 X146.979 Y121.755 E3.30181
G1 X145.849 Y121.890 E3.40532
G1 X144.286 Y122.165 E3.54961
G1 X142.748 Y122.526 E3.69327
G1 X141.971 Y122.743 E3.76666
G1 X140.468 Y123.231 E3.91033
G1 X138.989 Y123.805 E4.05461
G1 X137.546 Y124.460 E4.19870
G1 X136.477 Y125.012 E4.30810
G1 X135.863 Y125.359 E4.37219
G1 X135.702 Y125.136 E4.39725
G1 X136.139 Y125.921 F7800.000
G1 F1800
G1 X136.774 Y125.562 E4.46366
G1 X137.818 Y125.022 E4.57054
G1 X139.231 Y124.381 E4.71158
G1 X140.678 Y123.820 E4.85269
G1 X142.151 Y123.341 E4.99358
G1 X142.904 Y123.131 E5.06459
G1 X144.412 Y122.778 E5.20548
G1 X145.940 Y122.508 E5.34659
G1 X147.479 Y122.325 E5.48748
G1 X148.257 Y122.265 E5.55841
G1 X149.429 Y122.219 E5.66507
G1 X150.580 Y122.216 E5.76979
G1 X151.360 Y122.243 E5.84072
G1 X152.904 Y122.362 E5.98154
G1 X154.070 Y122.512 E6.08841
G1 X155.208 Y122.702 E6.19335
G1 X156.721 Y123.035 E6.33417
G1 X157.476 Y123.234 E6.40517
G1 X158.956 Y123.693 E6.54606
G1 X160.410 Y124.234 E6.68718
G1 X161.830 Y124.854 E6.82806
G1 X162.532 Y125.196 E6.89907
G1 X163.895 Y125.933 E7.03996
G1 X165.215 Y126.745 E7.18085
G1 X165.862 Y127.182 E7.25186
G1 X167.107 Y128.100 E7.39253
G1 X168.307 Y129.092 E7.53408
G1 X169.444 Y130.145 E7.67497
G1 X170.521 Y131.260 E7.81596
G1 X171.232 Y132.071 E7.91403
G1 X171.464 Y132.412 E7.95151
G1 X171.645 Y132.787 E7.98943
G1 X171.768 Y133.186 E8.02736
G1 X171.830 Y133.598 E8.06529
G1 X171.830 Y134.016 E8.10322
G1 X171.768 Y134.428 E8.14115
G1 X171.645 Y134.827 E8.17907
G1 X171.464 Y135.202 E8.21700
G1 X171.229 Y135.547 E8.25493
G1 X170.945 Y135.853 E8.29286
G1 X170.623 Y136.110 E8.33038
G1 X161.038 Y141.651 E9.33710
G1 X160.293 Y142.021 E9.41271
G1 X159.722 Y142.245 E9.46848
G1 X159.126 Y142.437 E9.52545
G1 X158.716 Y142.541 E9.56384
G1 X157.907 Y142.686 E9.63858
G1 X157.487 Y142.730 E9.67696
G1 X156.478 Y142.755 E9.76874
G1 X155.851 Y142.250 E9.84198
G1 X155.491 Y141.992 E9.88229
G1 X154.725 Y141.517 E9.96421
G1 X153.922 Y141.118 E10.04576
G1 X153.086 Y140.794 E10.12731
G1 X152.223 Y140.548 E10.20886
G1 X151.337 Y140.383 E10.29078
G1 X150.900 Y140.332 E10.33083
G1 X150.000 Y140.290 E10.41275
G1 X149.104 Y140.332 E10.49431
G1 X148.216 Y140.456 E10.57586
G1 X147.343 Y140.661 E10.65741
G1 X146.492 Y140.946 E10.73896
G1 X145.672 Y141.308 E10.82051
G1 X144.888 Y141.745 E10.90206
G1 X144.146 Y142.253 E10.98387
G1 X143.521 Y142.756 E11.05685
G1 X142.922 Y142.755 E11.11130
G1 X142.101 Y142.687 E11.18620
G1 X141.682 Y142.622 E11.22470
G1 X140.878 Y142.438 E11.29970
G1 X140.278 Y142.245 E11.35704
G1 X139.703 Y142.019 E11.41319
G1 X138.966 Y141.654 E11.48805
G1 X129.377 Y136.110 E12.49515
G1 X129.055 Y135.853 E12.53267
G1 X128.771 Y135.547 E12.57060
G1 X128.536 Y135.202 E12.60853
G1 X128.355 Y134.827 E12.64645
G1 X128.232 Y134.428 E12.68438
G1 X128.170 Y134.016 E12.72231
G1 X128.170 Y133.598 E12.76024
G1 X128.232 Y133.186 E12.79817
G1 X128.355 Y132.787 E12.83609
G1 X128.536 Y132.412 E12.87402
G1 X128.769 Y132.070 E12.91162
G1 X129.740 Y130.978 E13.04451
G1 X130.282 Y130.417 E13.11543
G1 X131.112 Y129.619 E13.22014
G1 X131.989 Y128.836 E13.32702
G1 X133.196 Y127.866 E13.46784
G1 X133.825 Y127.403 E13.53885
G1 X135.107 Y126.538 E13.67951
G1 X136.086 Y125.951 E13.78328
G1 X136.139 Y125.521 F7800.000
G1 E11.78328 F2400.00000
G92 E0
G1 X155.023 Y121.404 F7800.000
G1 E2.00000 F2400.00000
G1 F1800
G1 X155.550 Y120.964 E2.06248
G1 X155.835 Y120.620 E2.10311
G1 X157.273 Y120.936 E2.23694
G1 X158.413 Y121.248 E2.34448
G1 X159.557 Y121.605 E2.45337
G1 X161.054 Y122.154 E2.59834
G1 X162.546 Y122.801 E2.74630
G1 X162.591 Y123.348 E2.79621
G1 X162.753 Y123.913 E2.84969
G1 X162.354 Y123.719 E2.89001
G1 X160.879 Y123.074 E3.03645
G1 X159.359 Y122.509 E3.18391
G1 X157.820 Y122.033 E3.33036
G1 X157.015 Y121.820 E3.40613
G1 X155.445 Y121.475 E3.55222
G1 X155.082 Y121.414 E3.58573
G1 X153.111 Y121.405 F7800.000
G1 F1800
G1 X153.300 Y121.405 E3.60292
G1 X153.969 Y121.256 E3.66521
G1 X154.593 Y120.949 E3.72845
G1 X155.106 Y120.521 E3.78919
G1 X155.419 Y120.149 E3.83341
G1 X155.567 Y120.045 E3.84984
G1 X155.748 Y119.991 E3.86707
G1 X156.137 Y120.036 E3.90266
G1 X157.425 Y120.330 E4.02279
G1 X158.589 Y120.649 E4.13254
G1 X159.757 Y121.013 E4.24382
G1 X161.283 Y121.572 E4.39159
G1 X162.610 Y122.135 E4.52267
G1 X162.893 Y122.275 E4.55135
G1 X162.993 Y122.353 E4.56288
G1 X163.091 Y122.472 E4.57693
G1 X163.161 Y122.651 E4.59436
G1 X163.209 Y123.235 E4.64769
G1 X163.394 Y123.884 E4.70903
G1 X163.738 Y124.489 E4.77227
G1 X164.297 Y125.082 E4.84635
G1 X164.102 Y125.335 E4.87539
G1 X162.818 Y124.640 E5.00817
G1 X162.092 Y124.287 E5.08155
G1 X160.644 Y123.654 E5.22522
G1 X159.157 Y123.101 E5.36951
G1 X157.648 Y122.634 E5.51318
G1 X156.868 Y122.427 E5.58656
G1 X155.327 Y122.089 E5.73002
G1 X154.161 Y121.894 E5.83747
