; generated by Slic3r 1.3.0 on 2019-04-01 at 13:58:38

; external perimeters extrusion width = 0.44mm (3.38mm^3/s)
; perimeters extrusion width = 0.48mm (7.54mm^3/s)
; infill extrusion width = 0.48mm (10.05mm^3/s)
; solid infill extrusion width = 0.48mm (2.51mm^3/s)
; top infill extrusion width = 0.48mm (1.88mm^3/s)
; support material extrusion width = 0.44mm (6.76mm^3/s)

M107
M190 S65 ; set bed temperature and wait for it to be reached
M104 S205 ; set temperature
G28 ; home all axes
G1 Z5 F5000 ; lift nozzle

; Filament gcode

M109 S205 ; set temperature and wait for it to be reached
G21 ; set units to millimeters
G90 ; use absolute coordinates
M82 ; use absolute distances for extrusion
G92 E0
G1 Z0.350 F7800.000
G1 E-2.00000 F2400.00000
G92 E0
G1 X37.527 Y100.158 F7800.000
G1 E2.00000 F2400.00000
G1 F1800
G1 X38.194 Y99.926 E2.06413
G1 X38.691 Y99.786 E2.11111
G1 X39.194 Y99.670 E2.15806
G1 X39.703 Y99.580 E2.20503
G1 X40.215 Y99.514 E2.25199
G1 X41.230 Y99.459 E2.34442
G1 X272.364 Y99.459 E23.36136
G1 X273.536 Y99.505 E23.46800
G1 X274.296 Y99.581 E23.53746
G1 X275.051 Y99.696 E23.60690
G1 X275.800 Y99.847 E23.67636
G1 X276.540 Y100.035 E23.74581
G1 X277.270 Y100.260 E23.81529
G1 X277.988 Y100.521 E23.88471
G1 X278.693 Y100.816 E23.95418
G1 X279.381 Y101.147 E24.02363
G1 X280.053 Y101.511 E24.09310
G1 X280.705 Y101.907 E24.16253
G1 X281.338 Y102.335 E24.23199
G1 X281.801 Y102.682 E24.28459
G1 X282.203 Y103.001 E24.33125
G1 X282.779 Y103.502 E24.40068
G1 X283.330 Y104.031 E24.47014
G1 X283.855 Y104.587 E24.53961
G1 X284.351 Y105.167 E24.60905
G1 X284.817 Y105.772 E24.67851
G1 X285.254 Y106.399 E24.74796
G1 X285.658 Y107.047 E24.81741
G1 X286.030 Y107.714 E24.88686
G1 X286.369 Y108.398 E24.95631
G1 X286.673 Y109.099 E25.02580
G1 X286.943 Y109.814 E25.09522
G1 X287.176 Y110.541 E25.16467
G1 X287.374 Y111.279 E25.23416
G1 X287.535 Y112.025 E25.30355
G1 X287.658 Y112.780 E25.37307
G1 X287.744 Y113.538 E25.44248
G1 X287.793 Y114.300 E25.51194
G1 X287.804 Y115.065 E25.58143
G1 X287.777 Y115.828 E25.65089
G1 X287.712 Y116.588 E25.72027
G1 X287.610 Y117.346 E25.78980
G1 X287.477 Y118.068 E25.85654
G1 X287.345 Y118.646 E25.91045
G1 X268.741 Y193.020 E32.88163
G1 X268.481 Y193.797 E32.95609
G1 X268.286 Y194.276 E33.00311
G1 X267.983 Y194.912 E33.06721
G1 X267.733 Y195.364 E33.11419
G1 X267.279 Y196.075 E33.19093
G1 X266.972 Y196.492 E33.23793
G1 X266.522 Y197.034 E33.30203
G1 X266.170 Y197.412 E33.34900
G1 X265.555 Y197.990 E33.42575
G1 X265.156 Y198.318 E33.47269
G1 X264.742 Y198.627 E33.51969
G1 X264.153 Y199.014 E33.58380
G1 X263.705 Y199.272 E33.63078
G1 X263.245 Y199.508 E33.67779
G1 X262.470 Y199.842 E33.75450
G1 X261.984 Y200.016 E33.80144
G1 X261.307 Y200.214 E33.86556
G1 X260.482 Y200.390 E33.94230
G1 X259.783 Y200.486 E34.00645
G1 X258.768 Y200.541 E34.09888
G1 X27.636 Y200.541 E55.11564
G1 X26.464 Y200.495 E55.22227
G1 X25.704 Y200.419 E55.29173
G1 X24.949 Y200.304 E55.36118
G1 X24.200 Y200.153 E55.43065
G1 X23.460 Y199.965 E55.50009
G1 X22.730 Y199.740 E55.56954
G1 X21.708 Y199.357 E55.66880
G1 X21.010 Y199.046 E55.73823
G1 X20.328 Y198.701 E55.80770
G1 X19.665 Y198.323 E55.87714
G1 X19.021 Y197.913 E55.94660
G1 X18.397 Y197.471 E56.01605
G1 X17.797 Y196.999 E56.08551
G1 X17.220 Y196.498 E56.15496
G1 X16.669 Y195.969 E56.22442
G1 X16.145 Y195.414 E56.29387
G1 X15.649 Y194.833 E56.36333
G1 X15.183 Y194.228 E56.43277
G1 X14.746 Y193.601 E56.50224
G1 X14.342 Y192.953 E56.57167
G1 X13.970 Y192.286 E56.64113
G1 X13.631 Y191.601 E56.71060
G1 X13.327 Y190.901 E56.78007
G1 X13.057 Y190.186 E56.84950
G1 X12.824 Y189.459 E56.91895
G1 X12.626 Y188.721 E56.98842
G1 X12.465 Y187.974 E57.05787
G1 X12.342 Y187.221 E57.12731
G1 X12.256 Y186.462 E57.19674
G1 X12.207 Y185.699 E57.26622
G1 X12.196 Y184.936 E57.33568
G1 X12.223 Y184.172 E57.40514
G1 X12.288 Y183.411 E57.47460
G1 X12.465 Y182.225 E57.58368
G1 X12.655 Y181.355 E57.66466
G1 X31.257 Y106.980 E64.63580
G1 X31.517 Y106.203 E64.71034
G1 X31.712 Y105.724 E64.75731
G1 X31.930 Y105.256 E64.80426
G1 X32.171 Y104.799 E64.85125
G1 X32.434 Y104.355 E64.89820
G1 X32.719 Y103.925 E64.94517
G1 X33.025 Y103.508 E64.99214
G1 X33.476 Y102.966 E65.05625
G1 X33.828 Y102.588 E65.10324
G1 X34.199 Y102.229 E65.15018
G1 X34.587 Y101.888 E65.19715
G1 X35.256 Y101.373 E65.27390
G1 X35.846 Y100.986 E65.33802
G1 X36.293 Y100.728 E65.38500
G1 X36.753 Y100.493 E65.43196
G1 X37.472 Y100.180 E65.50325
G1 E63.50325 F2400.00000
G92 E0
G1 X179.812 Y169.817 F7800.000
G1 E2.00000 F2400.00000
G1 F1800
G1 X179.736 Y169.217 E2.05507
G1 X179.765 Y168.542 E2.11643
G1 X179.946 Y167.816 E2.18447
G1 X180.276 Y167.138 E2.25307
G1 X180.741 Y166.544 E2.32167
G1 X181.319 Y166.059 E2.39026
G1 X181.985 Y165.705 E2.45886
G1 X182.683 Y165.504 E2.52490
G1 X183.239 Y165.446 E2.57572
G1 X183.946 Y165.496 E2.64017
G1 X184.531 Y165.650 E2.69523
G1 X185.146 Y165.929 E2.75660
G1 X185.751 Y166.369 E2.82464
G1 X186.256 Y166.929 E2.89324
G1 X186.633 Y167.583 E2.96184
G1 X186.861 Y168.284 E3.02885
G1 X186.937 Y168.884 E3.08391
G1 X186.909 Y169.559 E3.14528
G1 X186.728 Y170.285 E3.21332
G1 X186.397 Y170.963 E3.28192
G1 X185.932 Y171.557 E3.35051
G1 X185.376 Y172.024 E3.41655
G1 X184.892 Y172.304 E3.46738
G1 X184.210 Y172.552 E3.53341
G1 X183.462 Y172.657 E3.60201
G1 X182.710 Y172.604 E3.67060
G1 X181.985 Y172.396 E3.73920
G1 X181.344 Y172.055 E3.80524
G1 X180.903 Y171.711 E3.85606
G1 X180.417 Y171.172 E3.92210
G1 X180.040 Y170.518 E3.99069
G1 X179.831 Y169.874 E4.05225
G1 X180.425 Y169.680 F7800.000
G1 F1800
G1 X180.362 Y169.190 E4.09715
G1 X180.386 Y168.632 E4.14796
G1 X180.536 Y168.031 E4.20427
G1 X180.809 Y167.471 E4.26092
G1 X181.193 Y166.980 E4.31758
G1 X181.670 Y166.580 E4.37423
G1 X182.220 Y166.287 E4.43088
G1 X182.803 Y166.120 E4.48598
G1 X183.250 Y166.073 E4.52686
G1 X183.843 Y166.115 E4.58098
G1 X184.321 Y166.241 E4.62589
G1 X184.830 Y166.472 E4.67669
G1 X185.331 Y166.836 E4.73301
G1 X185.748 Y167.299 E4.78966
G1 X186.059 Y167.838 E4.84631
G1 X186.248 Y168.421 E4.90200
G1 X186.311 Y168.911 E4.94690
G1 X186.287 Y169.469 E4.99771
G1 X186.137 Y170.070 E5.05402
G1 X185.864 Y170.630 E5.11068
G1 X185.480 Y171.121 E5.16733
G1 X185.016 Y171.510 E5.22242
G1 X184.627 Y171.735 E5.26330
G1 X184.058 Y171.942 E5.31840
G1 X183.441 Y172.029 E5.37505
G1 X182.819 Y171.985 E5.43170
G1 X182.220 Y171.814 E5.48835
G1 X181.685 Y171.529 E5.54345
G1 X181.331 Y171.253 E5.58433
G1 X180.925 Y170.802 E5.63942
G1 X180.614 Y170.263 E5.69607
G1 X180.443 Y169.737 E5.74630
G1 X181.037 Y169.543 F7800.000
G1 F1800
G1 X180.989 Y169.164 E5.78105
G1 X181.008 Y168.722 E5.82129
G1 X181.126 Y168.246 E5.86588
G1 X181.342 Y167.804 E5.91059
G1 X181.645 Y167.417 E5.95530
G1 X182.021 Y167.101 E6.00001
G1 X182.455 Y166.870 E6.04471
G1 X182.922 Y166.736 E6.08886
G1 X183.261 Y166.700 E6.11980
G1 X183.741 Y166.734 E6.16360
G1 X184.111 Y166.831 E6.19835
G1 X184.514 Y167.014 E6.23859
G1 X184.910 Y167.303 E6.28318
G1 X185.239 Y167.668 E6.32789
G1 X185.485 Y168.094 E6.37260
G1 X185.636 Y168.558 E6.41696
G1 X185.684 Y168.937 E6.45170
G1 X185.665 Y169.379 E6.49195
G1 X185.547 Y169.855 E6.53653
G1 X185.331 Y170.297 E6.58124
G1 X185.028 Y170.684 E6.62595
G1 X184.656 Y170.996 E6.67010
G1 X184.362 Y171.167 E6.70104
G1 X183.906 Y171.333 E6.74519
G1 X183.419 Y171.401 E6.78990
G1 X182.928 Y171.367 E6.83461
G1 X182.456 Y171.231 E6.87932
G1 X182.027 Y171.003 E6.92346
G1 X181.759 Y170.794 E6.95440
G1 X181.434 Y170.433 E6.99855
G1 X181.188 Y170.007 E7.04326
G1 X181.056 Y169.600 E7.08217
G1 X181.037 Y169.543 F7800.000
G1 E5.08217 F2400.00000
G92 E0
G1 X191.510 Y134.297 F7800.000
G1 E2.00000 F2400.00000
G1 F1800
G1 X190.869 Y133.956 E2.06604
G1 X190.428 Y133.612 E2.11686
G1 X189.942 Y133.072 E2.18289
G1 X189.565 Y132.419 E2.25149
G1 X189.337 Y131.718 E2.31850
G1 X189.261 Y131.117 E2.37357
G1 X189.290 Y130.443 E2.43493
G1 X189.471 Y129.717 E2.50297
G1 X189.801 Y129.039 E2.57157
G1 X190.266 Y128.444 E2.64017
G1 X190.844 Y127.959 E2.70876
G1 X191.510 Y127.605 E2.77736
G1 X192.208 Y127.405 E2.84340
G1 X192.736 Y127.350 E2.89167
G1 X193.266 Y127.368 E2.93994
G1 X193.977 Y127.519 E3.00598
G1 X194.666 Y127.826 E3.07457
G1 X195.276 Y128.269 E3.14317
G1 X195.781 Y128.830 E3.21177
G1 X196.158 Y129.483 E3.28036
G1 X196.391 Y130.201 E3.34896
G1 X196.470 Y130.951 E3.41756
G1 X196.391 Y131.701 E3.48616
G1 X196.164 Y132.402 E3.55317
G1 X195.872 Y132.933 E3.60823
G1 X195.470 Y133.440 E3.66703
G1 X195.059 Y133.810 E3.71731
G1 X194.443 Y134.194 E3.78334
G1 X193.735 Y134.452 E3.85194
G1 X192.987 Y134.557 E3.92054
G1 X192.235 Y134.505 E3.98914
G1 X191.567 Y134.313 E4.05228
G1 X191.745 Y133.714 F7800.000
G1 F1800
G1 X191.210 Y133.430 E4.10737
G1 X190.856 Y133.153 E4.14825
G1 X190.450 Y132.703 E4.20334
G1 X190.139 Y132.163 E4.26000
G1 X189.950 Y131.581 E4.31568
G1 X189.887 Y131.091 E4.36059
G1 X189.911 Y130.533 E4.41139
G1 X190.061 Y129.932 E4.46771
G1 X190.334 Y129.372 E4.52436
G1 X190.718 Y128.881 E4.58101
G1 X191.195 Y128.480 E4.63766
G1 X191.745 Y128.188 E4.69432
G1 X192.328 Y128.021 E4.74941
G1 X192.758 Y127.976 E4.78874
G1 X193.190 Y127.991 E4.82806
G1 X193.783 Y128.117 E4.88315
G1 X194.352 Y128.370 E4.93981
G1 X194.856 Y128.736 E4.99646
G1 X195.273 Y129.199 E5.05311
G1 X195.584 Y129.739 E5.10977
G1 X195.777 Y130.331 E5.16642
G1 X195.842 Y130.951 E5.22307
G1 X195.777 Y131.571 E5.27973
G1 X195.587 Y132.153 E5.33541
G1 X195.350 Y132.586 E5.38032
G1 X195.013 Y133.010 E5.42956
G1 X194.682 Y133.309 E5.47010
G1 X194.168 Y133.630 E5.52520
G1 X193.583 Y133.843 E5.58185
G1 X192.966 Y133.929 E5.63850
G1 X192.344 Y133.886 E5.69516
G1 X191.803 Y133.731 E5.74636
G1 X191.980 Y133.132 F7800.000
G1 F1800
G1 X191.552 Y132.904 E5.79050
G1 X191.284 Y132.694 E5.82144
G1 X190.959 Y132.333 E5.86559
G1 X190.713 Y131.908 E5.91030
G1 X190.562 Y131.444 E5.95466
G1 X190.514 Y131.065 E5.98941
G1 X190.533 Y130.622 E6.02965
G1 X190.651 Y130.147 E6.07424
G1 X190.867 Y129.705 E6.11895
G1 X191.170 Y129.317 E6.16366
G1 X191.546 Y129.001 E6.20836
G1 X191.980 Y128.770 E6.25307
G1 X192.447 Y128.637 E6.29722
G1 X192.780 Y128.602 E6.32760
G1 X193.113 Y128.613 E6.35799
G1 X193.588 Y128.714 E6.40213
G1 X194.038 Y128.914 E6.44684
G1 X194.435 Y129.203 E6.49155
G1 X194.764 Y129.569 E6.53626
G1 X195.010 Y129.994 E6.58097
G1 X195.162 Y130.462 E6.62568
G1 X195.213 Y130.951 E6.67039
G1 X195.162 Y131.440 E6.71510
G1 X195.011 Y131.904 E6.75946
G1 X194.827 Y132.239 E6.79420
G1 X194.556 Y132.581 E6.83389
G1 X194.304 Y132.808 E6.86470
G1 X193.893 Y133.065 E6.90885
G1 X193.431 Y133.233 E6.95356
G1 X192.944 Y133.301 E6.99827
G1 X192.453 Y133.267 E7.04298
G1 X192.038 Y133.148 E7.08223
G1 X191.980 Y133.132 F7800.000
G1 E5.08223 F2400.00000
G92 E0
G1 X241.892 Y148.688 F7800.000
G1 E2.00000 F2400.00000
G1 F1800
G1 X242.193 Y148.083 E2.06137
G1 X242.653 Y147.494 E2.12941
G1 X243.231 Y147.009 E2.19801
G1 X243.872 Y146.668 E2.26404
G1 X244.404 Y146.495 E2.31487
G1 X245.123 Y146.394 E2.38090
G1 X245.876 Y146.447 E2.44950
G1 X246.601 Y146.655 E2.51810
G1 X247.267 Y147.009 E2.58669
G1 X247.845 Y147.494 E2.65529
G1 X248.309 Y148.088 E2.72389
G1 X248.640 Y148.766 E2.79249
G1 X248.816 Y149.471 E2.85853
G1 X248.853 Y150.000 E2.90679
G1 X248.816 Y150.530 E2.95506
G1 X248.640 Y151.235 E3.02110
G1 X248.309 Y151.913 E3.08970
G1 X247.862 Y152.485 E3.15573
G1 X247.447 Y152.859 E3.20656
G1 X246.831 Y153.244 E3.27259
G1 X246.122 Y153.502 E3.34119
G1 X245.375 Y153.607 E3.40979
G1 X244.622 Y153.554 E3.47838
G1 X243.897 Y153.346 E3.54698
G1 X243.231 Y152.992 E3.61557
G1 X242.653 Y152.507 E3.68417
G1 X242.189 Y151.913 E3.75277
G1 X241.866 Y151.250 E3.81979
G1 X241.707 Y150.666 E3.87485
G1 X241.641 Y149.994 E3.93621
G1 X241.717 Y149.268 E4.00267
G1 X241.875 Y148.745 E4.05227
G1 X242.475 Y148.919 F7800.000
G1 F1800
G1 X242.724 Y148.418 E4.10308
G1 X243.105 Y147.930 E4.15940
G1 X243.583 Y147.530 E4.21605
G1 X244.117 Y147.245 E4.27114
G1 X244.545 Y147.106 E4.31202
G1 X245.145 Y147.022 E4.36711
G1 X245.767 Y147.066 E4.42377
G1 X246.365 Y147.237 E4.48042
G1 X246.916 Y147.530 E4.53707
G1 X247.393 Y147.930 E4.59373
G1 X247.776 Y148.421 E4.65038
G1 X248.050 Y148.981 E4.70703
G1 X248.196 Y149.569 E4.76213
G1 X248.226 Y150.000 E4.80145
G1 X248.196 Y150.432 E4.84077
G1 X248.050 Y151.020 E4.89587
G1 X247.776 Y151.580 E4.95252
G1 X247.403 Y152.057 E5.00761
G1 X247.069 Y152.358 E5.04850
G1 X246.556 Y152.679 E5.10359
G1 X245.970 Y152.892 E5.16024
G1 X245.353 Y152.979 E5.21689
G1 X244.732 Y152.935 E5.27355
G1 X244.133 Y152.764 E5.33020
G1 X243.583 Y152.471 E5.38685
G1 X243.105 Y152.071 E5.44351
G1 X242.722 Y151.580 E5.50016
G1 X242.453 Y151.029 E5.55585
G1 X242.323 Y150.553 E5.60075
G1 X242.269 Y149.997 E5.65155
G1 X242.333 Y149.391 E5.70690
G1 X242.458 Y148.976 E5.74635
G1 X243.058 Y149.149 F7800.000
G1 F1800
G1 X243.255 Y148.753 E5.78659
G1 X243.557 Y148.367 E5.83118
G1 X243.934 Y148.051 E5.87589
G1 X244.363 Y147.823 E5.92004
G1 X244.686 Y147.718 E5.95098
G1 X245.167 Y147.650 E5.99513
G1 X245.657 Y147.684 E6.03984
G1 X246.130 Y147.820 E6.08454
G1 X246.564 Y148.051 E6.12925
G1 X246.941 Y148.367 E6.17396
G1 X247.244 Y148.754 E6.21867
G1 X247.459 Y149.196 E6.26338
G1 X247.577 Y149.667 E6.30753
G1 X247.600 Y150.000 E6.33791
G1 X247.577 Y150.334 E6.36829
G1 X247.459 Y150.805 E6.41244
G1 X247.244 Y151.247 E6.45715
G1 X246.945 Y151.629 E6.50130
G1 X246.692 Y151.857 E6.53224
G1 X246.280 Y152.114 E6.57639
G1 X245.818 Y152.283 E6.62110
G1 X245.331 Y152.351 E6.66580
G1 X244.841 Y152.317 E6.71051
G1 X244.368 Y152.181 E6.75522
G1 X243.934 Y151.950 E6.79993
G1 X243.557 Y151.634 E6.84464
G1 X243.255 Y151.247 E6.88935
G1 X243.041 Y150.808 E6.93371
G1 X242.940 Y150.440 E6.96846
G1 X242.897 Y149.999 E7.00870
G1 X242.948 Y149.515 E7.05294
G1 X243.041 Y149.207 E7.08223
G1 X243.058 Y149.149 F7800.000
G1 E5.08223 F2400.00000
G92 E0
G1 X120.372 Y131.406 F7800.000
G1 E2.00000 F2400.00000
G1 F1800
G1 X120.197 Y132.111 E2.06603
G1 X119.866 Y132.789 E2.13463
G1 X119.401 Y133.384 E2.20323
G1 X118.823 Y133.869 E2.27183
G1 X118.157 Y134.223 E2.34042
G1 X117.459 Y134.423 E2.40646
G1 X116.921 Y134.480 E2.45570
G1 X116.344 Y134.452 E2.50821
G1 X115.685 Y134.306 E2.56957
G1 X115.001 Y134.002 E2.63762
G1 X114.391 Y133.559 E2.70621
G1 X113.886 Y132.998 E2.77481
G1 X113.509 Y132.345 E2.84341
G1 X113.281 Y131.644 E2.91042
G1 X113.205 Y131.043 E2.96548
G1 X113.234 Y130.369 E3.02685
G1 X113.415 Y129.643 E3.09489
G1 X113.745 Y128.965 E3.16349
G1 X114.192 Y128.392 E3.22952
G1 X114.608 Y128.018 E3.28035
G1 X115.224 Y127.634 E3.34638
G1 X115.933 Y127.376 E3.41498
G1 X116.680 Y127.271 E3.48358
G1 X117.432 Y127.323 E3.55218
G1 X118.157 Y127.531 E3.62077
G1 X118.823 Y127.885 E3.68937
G1 X119.401 Y128.370 E3.75797
G1 X119.855 Y128.951 E3.82498
G1 X120.132 Y129.489 E3.88004
G1 X120.336 Y130.133 E3.94141
G1 X120.411 Y130.849 E4.00689
G1 X120.376 Y131.347 E4.05226
G1 X119.753 Y131.308 F7800.000
G1 F1800
G1 X119.606 Y131.896 E4.10735
G1 X119.333 Y132.456 E4.16400
G1 X118.949 Y132.947 E4.22065
G1 X118.472 Y133.348 E4.27731
G1 X117.922 Y133.640 E4.33396
G1 X117.340 Y133.807 E4.38905
G1 X116.903 Y133.853 E4.42897
G1 X116.427 Y133.830 E4.47232
G1 X115.881 Y133.710 E4.52312
G1 X115.315 Y133.458 E4.57944
G1 X114.811 Y133.092 E4.63609
G1 X114.394 Y132.629 E4.69274
G1 X114.083 Y132.089 E4.74940
G1 X113.894 Y131.507 E4.80508
G1 X113.831 Y131.017 E4.84999
G1 X113.855 Y130.459 E4.90079
G1 X114.005 Y129.858 E4.95711
G1 X114.278 Y129.298 E5.01376
G1 X114.651 Y128.820 E5.06885
G1 X114.985 Y128.519 E5.10973
G1 X115.499 Y128.198 E5.16483
G1 X116.085 Y127.985 E5.22148
G1 X116.702 Y127.898 E5.27813
G1 X117.323 Y127.942 E5.33479
G1 X117.922 Y128.114 E5.39144
G1 X118.472 Y128.406 E5.44809
G1 X118.949 Y128.807 E5.50474
G1 X119.326 Y129.289 E5.56043
G1 X119.552 Y129.728 E5.60534
G1 X119.721 Y130.261 E5.65614
G1 X119.784 Y130.860 E5.71089
G1 X119.757 Y131.248 E5.74632
G1 X119.133 Y131.210 F7800.000
G1 F1800
G1 X119.016 Y131.681 E5.79047
G1 X118.800 Y132.123 E5.83518
G1 X118.497 Y132.511 E5.87989
G1 X118.121 Y132.827 E5.92460
G1 X117.687 Y133.058 E5.96930
G1 X117.220 Y133.191 E6.01345
G1 X116.885 Y133.227 E6.04405
G1 X116.510 Y133.208 E6.07823
